x-pack/solutions/search/plugins/enterprise_search/public/assets/images/nlp.svg

<svg width="40" height="40" viewBox="0 0 40 40" fill="none" xmlns="http://www.w3.org/2000/svg">
<path d="M17.5 25H31.25V22.5H17.5V25Z" fill="#535766"/>
<path d="M17.5 31.25H31.25V28.75H17.5V31.25Z" fill="#535766"/>
<path d="M13.75 25H8.75V22.5H13.75V25Z" fill="#535766"/>
<path d="M13.75 31.25H8.75V28.75H13.75V31.25Z" fill="#535766"/>
<path fill-rule="evenodd" clip-rule="evenodd" d="M17.5 9.375C17.5 13.8623 13.8623 17.5 9.375 17.5C4.88769 17.5 1.25 13.8623 1.25 9.375C1.25 4.88769 4.88769 1.25 9.375 1.25C13.8623 1.25 17.5 4.88769 17.5 9.375ZM3.75 9.375C3.75 12.4816 6.2684 15 9.375 15C12.4816 15 15 12.4816 15 9.375C15 6.2684 12.4816 3.75 9.375 3.75C6.2684 3.75 3.75 6.2684 3.75 9.375Z" fill="#00BFB3"/>
<path d="M13.8142 15.0714L18.8492 20.1063L20.617 18.3386L15.582 13.3036L13.8142 15.0714Z" fill="#00BFB3"/>
<path d="M20 3.75H33.75C35.1307 3.75 36.25 4.86929 36.25 6.25V33.906C36.25 35.2867 35.1307 36.406 33.75 36.406L33.7375 36.406L6.23752 36.2686C4.86169 36.2618 3.75 35.1445 3.75 33.7687V20H1.25V33.7687C1.25 36.5204 3.47339 38.7549 6.22503 38.7686L33.725 38.9059L33.75 38.906C36.5114 38.906 38.75 36.6674 38.75 33.906V6.25C38.75 3.48858 36.5114 1.25 33.75 1.25H20V3.75Z" fill="#535766"/>
</svg>

<svg xmlns="http://www.w3.org/2000/svg" width="40" height="40" fill="none"><path fill="#535766" d="M17.5 25h13.75v-2.5H17.5zM17.5 31.25h13.75v-2.5H17.5zM13.75 25h-5v-2.5h5zM13.75 31.25h-5v-2.5h5z"/><path fill="#00BFB3" fill-rule="evenodd" d="M17.5 9.375a8.125 8.125 0 1 1-16.25 0 8.125 8.125 0 0 1 16.25 0m-13.75 0a5.625 5.625 0 1 0 11.25 0 5.625 5.625 0 0 0-11.25 0" clip-rule="evenodd"/><path fill="#00BFB3" d="m13.814 15.071 5.035 5.035 1.768-1.767-5.035-5.035z"/><path fill="#535766" d="M20 3.75h13.75a2.5 2.5 0 0 1 2.5 2.5v27.656a2.5 2.5 0 0 1-2.5 2.5h-.013l-27.5-.137a2.5 2.5 0 0 1-2.487-2.5V20h-2.5v13.769a5 5 0 0 0 4.975 5l27.5.137h.025a5 5 0 0 0 5-5V6.25a5 5 0 0 0-5-5H20z"/></svg>
